dist/ueditor-plus/themes/default/exts/ppt.svg

<svg xmlns="http://www.w3.org/2000/svg" width="85" height="100" viewBox="0 0 85 100">
    <defs>
        <linearGradient id="ppt-a" x1="50%" x2="50%" y1="0%" y2="100%">
            <stop offset="0%" stop-color="#E86D36"/>
            <stop offset="100%" stop-color="#FA9B70"/>
        </linearGradient>
    </defs>
    <g fill="none" fill-rule="evenodd">
        <path fill="url(#ppt-a)"
              d="M6,0 L62.3333333,0 L62.3333333,0 L85,22.8571429 L85,94 C85,97.3137085 82.3137085,100 79,100 L6,100 C2.6862915,100 4.05812251e-16,97.3137085 0,94 L0,6 C-4.05812251e-16,2.6862915 2.6862915,6.08718376e-16 6,0 Z"/>
        <rect width="22.667" height="2.817" x="51" y="33.803" fill="#FFF" opacity=".5"/>
        <rect width="22.667" height="2.817" x="51" y="45.07" fill="#FFF" opacity=".5"/>
        <rect width="22.667" height="2.817" x="51" y="56.338" fill="#FFF" opacity=".5"/>
        <rect width="22.667" height="2.817" x="51" y="67.606" fill="#FFF" opacity=".5"/>
        <path fill="#FFF"
              d="M62.3333333,0 L85,22.5352113 L68.3333333,22.5352113 C65.0196248,22.5352113 62.3333333,19.8489198 62.3333333,16.5352113 L62.3333333,0 L62.3333333,0 Z"
              opacity=".5"/>
        <rect width="42.5" height="42.254" y="30.986" fill="#E96123" rx="2"/>
        <path fill="#FFF" fill-rule="nonzero"
              d="M11.1666667,40.8450704 C11.1666667,39.1882162 12.5098124,37.8450704 14.1666667,37.8450704 L25.5328638,37.8450704 C30.3011815,37.8450704 34.1666667,41.7105556 34.1666667,46.4788732 C34.1666667,51.2471909 30.3011815,55.1126761 25.5328638,55.1126761 L14.1666667,55.1126761 C12.5098124,55.1126761 11.1666667,53.7695303 11.1666667,52.1126761 L11.1666667,40.8450704 Z M17.1666667,49.1126761 L25.5328638,49.1126761 C26.987473,49.1126761 28.1666667,47.9334824 28.1666667,46.4788732 C28.1666667,45.0242641 26.987473,43.8450704 25.5328638,43.8450704 L17.1666667,43.8450704 L17.1666667,49.1126761 Z"/>
        <path stroke="#FFF" stroke-linecap="round" stroke-linejoin="round" stroke-width="6"
              d="M14.1666667,40.8450704 L14.1666667,63.3802817"/>
    </g>
</svg>

<svg xmlns="http://www.w3.org/2000/svg" width="85" height="100"><defs><linearGradient id="a" x1="50%" x2="50%" y1="0%" y2="100%"><stop offset="0%" stop-color="#E86D36"/><stop offset="100%" stop-color="#FA9B70"/></linearGradient></defs><g fill="none" fill-rule="evenodd"><path fill="url(#a)" d="M6 0h56.333L85 22.857V94a6 6 0 0 1-6 6H6a6 6 0 0 1-6-6V6a6 6 0 0 1 6-6Z"/><path fill="#FFF" d="M51 33.803h22.667v2.817H51zm0 11.267h22.667v2.817H51zm0 11.268h22.667v2.817H51zm0 11.268h22.667v2.817H51zM62.333 0 85 22.535H68.333a6 6 0 0 1-6-6V0Z" opacity=".5"/><rect width="42.5" height="42.254" y="30.986" fill="#E96123" rx="2"/><path fill="#FFF" fill-rule="nonzero" d="M11.167 40.845a3 3 0 0 1 3-3h11.366a8.634 8.634 0 1 1 0 17.268H14.167a3 3 0 0 1-3-3V40.845Zm6 8.268h8.366a2.634 2.634 0 1 0 0-5.268h-8.366v5.268Z"/><path stroke="#FFF" stroke-linecap="round" stroke-linejoin="round" stroke-width="6" d="M14.167 40.845V63.38"/></g></svg>
